svgs/duotone/trash-can-slash.svg

<svg xmlns="http://www.w3.org/2000/svg" viewBox="0 0 640 512"><!--! Font Awesome Pro 6.1.1 by @fontawesome - https://fontawesome.com License - https://fontawesome.com/license (Commercial License) Copyright 2022 Fonticons, Inc. --><defs><style>.fa-secondary{opacity:.4}</style></defs><path class="fa-primary" d="M5.112 9.196C13.29-1.236 28.37-3.065 38.81 5.112L630.8 469.1C641.2 477.3 643.1 492.4 634.9 502.8C626.7 513.2 611.6 515.1 601.2 506.9L9.196 42.89C-1.236 34.71-3.065 19.63 5.112 9.196V9.196z"/><path class="fa-secondary" d="M432 313.3V208C432 199.2 424.8 192 416 192C407.2 192 400 199.2 400 208V288.2L336 238V207.1C336 199.2 328.8 191.1 320 191.1C311.2 191.1 304 199.2 304 207.1V212.1L195.6 127.1H512V375.1L432 313.3zM98.4 51.82C103.2 40.19 114.6 32 128 32H224L231.2 17.69C236.6 6.848 247.7 0 259.8 0H380.2C392.3 0 403.4 6.848 408.8 17.69L416 32H512C529.7 32 544 46.33 544 64C544 81.67 529.7 96 512 96H154.8L98.4 51.82zM128 448V196.9L208 259.9V432C208 440.8 215.2 448 224 448C232.8 448 240 440.8 240 432V285.1L304 335.5V432C304 440.8 311.2 448 320 448C328.8 448 336 440.8 336 432V360.7L400 411.2V432C400 440.8 407.2 448 416 448C423.5 448 429.7 442.9 431.5 435.1L497.8 488.2C486.1 502.7 468.1 512 448 512H192C156.7 512 128 483.3 128 448V448z"/></svg>

<svg xmlns="http://www.w3.org/2000/svg" viewBox="0 0 640 512"><!--! Font Awesome Pro 6.4.2 by @fontawesome - https://fontawesome.com License - https://fontawesome.com/license (Commercial License) Copyright 2023 Fonticons, Inc. --><path class="fa-primary" style="fill:var(--fa-primary-color,inherit);opacity:var(--fa-primary-opacity,1);" d="M5.1 9.2C13.3-1.2 28.4-3.1 38.8 5.1l592 464c10.4 8.2 12.3 23.3 4.1 33.7s-23.3 12.3-33.7 4.1L9.2 42.9C-1.2 34.7-3.1 19.6 5.1 9.2z"/><path class="fa-secondary" style="fill:var(--fa-secondary-color,inherit);opacity:var(--fa-secondary-opacity,.4);" d="M431.5 436l66.3 52.2C486.1 502.7 468.1 512 448 512H192c-35.3 0-64-28.7-64-64V196.8l80 63V432c0 8.8 7.2 16 16 16s16-7.2 16-16V285.1l64 50.4V432c0 8.8 7.2 16 16 16s16-7.2 16-16V360.7l64 50.4V432c0 8.8 7.2 16 16 16c7.5 0 13.7-5.1 15.5-12zM336 208c0-8.8-7.2-16-16-16s-16 7.2-16 16v5L195.6 128H512V376l-80-62.7V208c0-8.8-7.2-16-16-16s-16 7.2-16 16v80.2L336 238V208zM512 96H154.8L98.4 51.8C103.2 40.2 114.6 32 128 32h96l7.2-14.3C236.6 6.8 247.7 0 259.8 0H380.2c12.1 0 23.2 6.8 28.6 17.7L416 32h96c17.7 0 32 14.3 32 32s-14.3 32-32 32z"/></svg>
